usr/share/icons/biglinux-icons-material/16/actions/path-mode-polyline.svg

<svg xmlns="http://www.w3.org/2000/svg" viewBox="0 0 16 16"><path d="M2 2v3h2.125L9 11.5V14h3v-3H9.875L5 4.498V4h6v1h3V2h-3v1H5V2H2zm1 1h1v1H3V3zm9 0h1v1h-1V3zm-2 9h1v1h-1v-1z" style="fill:currentColor;fill-opacity:1;stroke:none;color:#dedede"/></svg>

<svg xmlns="http://www.w3.org/2000/svg" viewBox="0 0 16 16">
  <defs id="defs3051">
    <style type="text/css" id="current-color-scheme">
      .ColorScheme-Text {
        color:#363636;
      }
      </style>
  </defs>
 <path style="fill:currentColor;fill-opacity:1;stroke:none" 
       d="M 2 2 L 2 5 L 4.125 5 L 9 11.5 L 9 14 L 12 14 L 12 11 L 9.875 11 L 5 4.4980469 L 5 4 L 11 4 L 11 5 L 14 5 L 14 2 L 11 2 L 11 3 L 5 3 L 5 2 L 2 2 z M 3 3 L 4 3 L 4 4 L 3.9980469 4 L 3 4 L 3 3 z M 12 3 L 13 3 L 13 4 L 12 4 L 12 3 z M 10 12 L 11 12 L 11 13 L 10 13 L 10 12 z "
     class="ColorScheme-Text"
     />
</svg>
